src/assets/Icons/loadingSpinner.svg

<svg width="41" height="40" viewBox="0 0 41 40" fill="none" xmlns="http://www.w3.org/2000/svg">
<path d="M20.4997 2.14285V9.28571M20.4997 30.7143V37.8571M7.87472 7.375L12.9283 12.4286M28.0712 27.5714L33.1247 32.625M2.64258 20H9.78544M31.214 20H38.3569M7.87472 32.625L12.9283 27.5714M28.0712 12.4286L33.1247 7.375" stroke="#FD7E14" stroke-width="4" stroke-linecap="round" stroke-linejoin="round"/>
</svg>

<svg width="41" height="40" fill="none" xmlns="http://www.w3.org/2000/svg"><path d="M20.5 2.143v7.143m0 21.428v7.143M7.875 7.375l5.053 5.054M28.071 27.57l5.054 5.054M2.643 20h7.142m21.429 0h7.143M7.875 32.625l5.053-5.054M28.071 12.43l5.054-5.054" stroke="#FD7E14" stroke-width="4" stroke-linecap="round" stroke-linejoin="round"/></svg>
